X:972
T:Davy Collin's Polka
S:Gerry Harrington, The Fiddle the Voice (2005)
Z:Nigel Gatherer
L:1/8
M:2/4
K:D
E | F2 GF/G/ | BA D>d | cA Bc | BA FD |
F2 GF/G/ | BA D>d | cA GE | ED D :|
z | ff/e/ fg | fd A>d | cA Bc | BA FD | 
ff/e/ fg | fd A>d | cA Bc | d2 de |
ff/e/ fg | fd A>d | cA Bc | BA FD |
F2 GF/G/ | BA D>d | cA GE | ED D |]
<end>
<start>
